src/pages/screens/Banner/images/logo.svg

<svg width="69" height="48" viewBox="0 0 69 48" fill="none" xmlns="http://www.w3.org/2000/svg">
<path fill-rule="evenodd" clip-rule="evenodd" d="M0.971554 44.401C-0.606496 39.9262 -1.41306 28.4672 7.98511 18.4295C7.98511 17.5521 2.54961 11.8489 4.65367 0.267064C7.02075 -0.259385 13.5258 -0.364675 20.6095 3.42576C23.4149 4.47865 29.394 8.0936 30.8668 14.1302C32.3397 20.1668 32.3572 33.0239 32.1819 38.6978C29.2816 39.6978 24.8176 43.3498 32.1819 46.2257C30.6038 47.9123 20.8725 48.5248 20.6095 42.3829C20.4502 38.6621 26.1004 35.4341 29.2816 32.4698C31.824 30.1008 31.7816 20.4079 22.7136 21.1495C9.81898 22.2041 0.971554 38.1714 0.971554 44.401Z" fill="#F4F4F4"/>
<path fill-rule="evenodd" clip-rule="evenodd" d="M67.4176 44.401C68.9957 39.9262 69.8022 28.4673 60.4041 18.4297C60.4041 17.5523 65.8396 11.8492 63.7355 0.267381C61.3685 -0.259064 54.8634 -0.364353 47.7798 3.42605C44.9744 4.47894 38.9953 8.09386 37.5225 14.1304C36.0496 20.167 36.0321 33.024 36.2075 38.6979C39.1077 39.6979 43.5717 43.3498 36.2075 46.2257C37.7855 47.9123 47.5168 48.5248 47.7798 42.383C47.9391 38.6622 42.2889 35.4341 39.1077 32.4699C36.5653 30.1009 36.6077 20.4081 45.6757 21.1497C58.5703 22.2043 67.4176 38.1714 67.4176 44.401Z" fill="#F4F4F4"/>
</svg>

<svg width="69" height="48" fill="none" xmlns="http://www.w3.org/2000/svg"><path fill-rule="evenodd" clip-rule="evenodd" d="M.972 44.401c-1.578-4.475-2.385-15.934 7.013-25.972 0-.877-5.435-6.58-3.331-18.162C7.02-.259 13.526-.365 20.61 3.426c2.805 1.053 8.784 4.668 10.257 10.704 1.473 6.037 1.49 18.894 1.315 24.568-2.9 1-7.364 4.652 0 7.528-1.578 1.686-11.31 2.299-11.573-3.843-.159-3.72 5.491-6.949 8.673-9.913 2.542-2.37 2.5-12.062-6.568-11.32C9.819 22.203.972 38.17.972 44.4zM67.418 44.401c1.578-4.475 2.384-15.934-7.014-25.971 0-.878 5.436-6.58 3.331-18.163-2.367-.526-8.872-.631-15.955 3.159-2.806 1.053-8.785 4.668-10.258 10.704-1.472 6.037-1.49 18.894-1.314 24.568 2.9 1 7.364 4.652 0 7.528 1.578 1.686 11.309 2.299 11.572-3.843.16-3.72-5.491-6.949-8.672-9.913-2.543-2.37-2.5-12.062 6.568-11.32C58.57 22.204 67.418 38.17 67.418 44.4z" fill="#F4F4F4"/></svg>
